X:3124
T:Cnoc na gClarac
R:slide
S:Erik Fossum
Z:id:hn-slide-15
M:6/8
K:Amix
a2g|:e2e efe|d2d e2d|c2A B2A|a3 a2g|
e2e efe|d2d e2d|c2A B2c|1 A3 a2g:|2 A3 A2d||
|:e2a a2g|e2d c2d|e2a a2g|efe d2f|
e2a aba|g2g gfe|d2d def|1 g2a f2g:|2 g3||


